svg/fluentui-system-icons/ic_fluent_bow_tie_24_filled.svg

<svg width="24" height="24" viewBox="0 0 24 24" fill="none" xmlns="http://www.w3.org/2000/svg">
<path d="M2 5.76553C2 3.84598 4.07371 2.64256 5.74035 3.59493L9.24035 5.59493C9.41887 5.69694 9.58173 5.81908 9.72672 5.95757C10.0726 5.67172 10.5162 5.49997 11 5.49997H13C13.4838 5.49997 13.9274 5.67172 14.2733 5.95758C14.4183 5.81909 14.5811 5.69694 14.7597 5.59493L18.2597 3.59493C19.9263 2.64256 22 3.84598 22 5.76553V11.7162C22 13.6322 19.9331 14.8361 18.2665 13.8907L14.7665 11.9052C14.4626 11.7328 14.2038 11.5022 14.0009 11.2319C13.7065 11.4024 13.3646 11.5 13 11.5H11C10.6354 11.5 10.2935 11.4024 9.99914 11.2319C9.7962 11.5022 9.5374 11.7328 9.23352 11.9052L5.73352 13.8907C4.06693 14.8361 2 13.6322 2 11.7162V5.76553ZM8 8C7.58579 8 7.25 8.33579 7.25 8.75C7.25 9.16421 7.58579 9.5 8 9.5H9.75V8H8ZM16.75 8.75C16.75 8.33579 16.4142 8 16 8H14.25V9.5H16C16.4142 9.5 16.75 9.16421 16.75 8.75ZM9.72668 12.7751C9.91588 12.6677 10.0926 12.5443 10.2555 12.407C10.5302 12.4771 10.7497 12.7079 10.7497 12.9914V19.25C10.7497 20.2165 9.96625 21 8.99975 21H6.58902C5.41924 21 4.5788 19.8745 4.91112 18.7529L6.06901 14.845C6.12182 14.8183 6.17439 14.7902 6.22668 14.7605L9.72668 12.7751ZM13.7442 12.407C13.4695 12.4771 13.25 12.7079 13.25 12.9915V19.25C13.25 20.2165 14.0335 21 15 21H17.4107C18.5805 21 19.4209 19.8744 19.0886 18.7529L17.9307 14.845C17.8779 14.8183 17.8254 14.7902 17.7731 14.7605L14.2731 12.7751C14.0839 12.6677 13.9071 12.5443 13.7442 12.407Z" fill="#212121"/>
</svg>

<svg xmlns="http://www.w3.org/2000/svg" width="24" height="24"><path d="M2 5.766c0-1.92 2.074-3.123 3.74-2.171l3.5 2c.179.102.342.224.487.363.346-.286.79-.458 1.273-.458h2c.484 0 .927.172 1.273.458a2.47 2.47 0 0 1 .487-.363l3.5-2c1.666-.952 3.74.251 3.74 2.17v5.951c0 1.916-2.067 3.12-3.733 2.175l-3.5-1.986a2.497 2.497 0 0 1-.766-.673c-.294.17-.636.268-1.001.268h-2a1.99 1.99 0 0 1-1-.268c-.204.27-.463.5-.766.673l-3.5 1.986C4.067 14.836 2 13.632 2 11.716v-5.95ZM8 8a.75.75 0 0 0 0 1.5h1.75V8H8Zm8.75.75A.75.75 0 0 0 16 8h-1.75v1.5H16a.75.75 0 0 0 .75-.75Zm-7.023 4.025c.189-.107.366-.23.528-.368.275.07.495.3.495.584v6.259A1.75 1.75 0 0 1 9 21H6.589a1.75 1.75 0 0 1-1.678-2.247l1.158-3.908c.053-.027.105-.055.158-.085l3.5-1.985Zm4.017-.368c-.274.07-.494.3-.494.585v6.258c0 .966.784 1.75 1.75 1.75h2.41a1.75 1.75 0 0 0 1.679-2.247l-1.158-3.908a3.701 3.701 0 0 1-.158-.085l-3.5-1.985a3.506 3.506 0 0 1-.529-.368Z"/></svg>
